static/roadshow/starkware.svg

<svg width="400" height="400" viewBox="0 0 400 400" fill="none" xmlns="http://www.w3.org/2000/svg">
<path d="M124.75 208.58C124.75 213.67 121.84 216.59 116.11 216.59H102.41V210.56H114.48C116.25 210.56 117.1 209.95 117.1 208.39C117.1 207.12 116.15 206.32 114.05 204.85L106.89 199.38C103.26 196.65 101.74 194.1 101.74 191.08C101.74 185.94 104.79 183.58 110.81 183.58H124.17V189.61H112.15C110.29 189.61 109.38 190.22 109.38 191.83C109.38 193.06 110.33 193.86 112.48 195.27L119.59 200.17C123.22 202.64 124.75 205.61 124.75 208.58Z" fill="white"/>
<path d="M152.75 189.63H144.09V216.59H136.4V189.63H127.75V183.59H152.75V189.63Z" fill="white"/>
<path d="M173.38 204.71L168.79 191.65L164.15 204.71H173.38ZM175.35 210.23H162.14L159.89 216.59H151.74L164.81 183.59H172.68L185.75 216.59H177.6L175.35 210.23Z" fill="white"/>
<path d="M198.721 199.15C202.921 199.15 204.161 197.69 204.161 194.2C204.161 190.71 202.921 189.25 198.721 189.25H195.381V199.15H198.721V199.15ZM212.751 216.59H205.071L203.591 210.27C202.641 205.89 201.781 204.71 198.441 204.66H195.391V216.59H187.761V183.59H201.451C208.561 183.59 211.801 186.7 211.801 193.49C211.801 198.06 209.991 200.84 206.311 201.98C208.931 203.21 210.221 205.66 211.271 210.28L212.751 216.59Z" fill="white"/>
<path d="M225.18 199.58L237.03 183.6H245.91L233.45 199.58L246.74 216.6H237.86L225.18 199.58ZM217.75 216.59H225.19V183.59H217.75V216.59Z" fill="white"/>
<path d="M295.75 183.59L285.77 216.59H281.1L273.22 190.19L265.34 216.59H260.63L250.75 183.59H255.32L263.1 211.46L271.36 183.59H275.09L283.34 211.46L291.18 183.59H295.75Z" fill="white"/>
<path d="M315.52 204.86L309.27 188.31L302.98 204.86H315.52ZM316.7 208.01H301.79L298.52 216.59H293.74L306.94 183.59H311.53L324.73 216.59H319.95L316.7 208.01Z" fill="white"/>
<path d="M339.1 199.76C344.35 199.76 346.31 197.73 346.31 193.3C346.31 188.96 344.35 186.89 339.1 186.89H333.14V199.76H339.1ZM351.75 216.59H347.31L346.12 210.93C344.93 205.04 343.45 203.06 338.96 202.96H333.14V216.58H328.75V183.58H340.58C347.59 183.58 350.7 186.64 350.7 192.91C350.7 197.62 348.74 200.5 344.64 201.44C347.88 202.67 349.36 205.45 350.51 210.92L351.75 216.59Z" fill="white"/>
<path d="M363.11 187.08V197.12H377.81V200.37H363.11V207.44C363.11 211.35 364.82 213.1 368.7 213.1H379.75V216.59H368.04C361.12 216.59 358.75 214.33 358.75 207.82V183.59H379.75V187.08H363.11Z" fill="white"/>
<path d="M51.7004 203.83L46.0404 209.66L46.0304 209.67C46.0204 209.68 46.0004 209.68 45.9804 209.68C45.9304 209.68 45.8904 209.64 45.8904 209.59C45.8904 209.58 45.8904 209.57 45.8904 209.56L48.0404 201.28C48.2204 200.69 48.0904 200.01 47.6304 199.54L41.9704 193.71L41.9604 193.7C41.9504 193.69 41.9504 193.67 41.9504 193.65C41.9504 193.6 41.9904 193.56 42.0404 193.56C42.0504 193.56 42.0604 193.56 42.0704 193.56L50.1004 195.78C50.6804 195.97 51.3304 195.83 51.7904 195.36L57.4504 189.53L57.4604 189.52C57.4704 189.51 57.4904 189.51 57.5104 189.51C57.5604 189.51 57.6004 189.55 57.6004 189.6C57.6004 189.61 57.6004 189.62 57.6004 189.63L55.4504 197.91C55.2704 198.5 55.4004 199.18 55.8604 199.65L61.5204 205.48L61.5304 205.49C61.5404 205.5 61.5404 205.52 61.5404 205.54C61.5404 205.59 61.5004 205.63 61.4504 205.63C61.4404 205.63 61.4304 205.63 61.4204 205.63L53.3904 203.41C52.8104 203.22 52.1604 203.36 51.7004 203.83ZM83.5004 198.99L69.9904 185.06C69.5304 184.59 68.8804 184.45 68.3004 184.64L59.4204 187.1C59.4104 187.1 59.4004 187.1 59.3904 187.1C59.3404 187.1 59.3004 187.06 59.3004 187.01C59.3004 186.98 59.3204 186.95 59.3404 186.93C60.3104 186.26 61.7804 185.06 65.2904 181.44C65.6204 181.1 65.6204 180.56 65.2904 180.22L52.3204 166.85C51.9904 166.51 51.4704 166.51 51.1404 166.85L37.6304 180.78C37.1704 181.25 37.0404 181.93 37.2204 182.52L39.6004 191.68C39.6004 191.69 39.6004 191.7 39.6004 191.71C39.6004 191.76 39.5604 191.8 39.5104 191.8C39.4804 191.8 39.4504 191.78 39.4404 191.76C38.8004 190.76 37.6304 189.24 34.1104 185.62C33.7804 185.28 33.2604 185.28 32.9304 185.62L19.9604 198.99C19.6304 199.33 19.6304 199.87 19.9604 200.21L33.4704 214.14C33.9304 214.61 34.5804 214.75 35.1604 214.56L44.0404 212.1C44.0504 212.1 44.0604 212.1 44.0704 212.1C44.1204 212.1 44.1604 212.14 44.1604 212.19C44.1604 212.22 44.1404 212.25 44.1204 212.27C43.1504 212.93 41.6804 214.14 38.1704 217.76C37.8404 218.1 37.8404 218.64 38.1704 218.98L51.1404 232.35C51.4704 232.69 51.9904 232.69 52.3204 232.35L65.8304 218.42C66.2904 217.95 66.4204 217.27 66.2404 216.68L63.8604 207.52C63.8604 207.51 63.8604 207.5 63.8604 207.49C63.8604 207.44 63.9004 207.4 63.9504 207.4C63.9804 207.4 64.0104 207.42 64.0304 207.44C64.6704 208.44 65.8404 209.96 69.3604 213.58C69.6904 213.92 70.2104 213.92 70.5404 213.58L83.5004 200.2C83.8304 199.87 83.8304 199.32 83.5004 198.99Z" fill="white"/>
</svg>

<?xml version="1.0" encoding="utf-8"?>
<!-- Generator: Adobe Illustrator 25.2.1, SVG Export Plug-In . SVG Version: 6.00 Build 0)  -->
<svg version="1.1" id="레이어_1" xmlns="http://www.w3.org/2000/svg" xmlns:xlink="http://www.w3.org/1999/xlink" x="0px"
	 y="0px" viewBox="0 0 400 400" style="enable-background:new 0 0 400 400;" xml:space="preserve">
<g id="Hovers_x2C_-Color_x2C_-Fonts-_x26_-Icons">
	<g id="Group-23">
		<path id="Fill-1" d="M124.75,208.58c0,5.09-2.91,8.01-8.64,8.01h-13.7v-6.03h12.07c1.77,0,2.62-0.61,2.62-2.17
			c0-1.27-0.95-2.07-3.05-3.54l-7.16-5.47c-3.63-2.73-5.15-5.28-5.15-8.3c0-5.14,3.05-7.5,9.07-7.5h13.36v6.03h-12.02
			c-1.86,0-2.77,0.61-2.77,2.22c0,1.23,0.95,2.03,3.1,3.44l7.11,4.9C123.22,202.64,124.75,205.61,124.75,208.58"/>
		<polygon id="Fill-3" points="152.75,189.63 144.09,189.63 144.09,216.59 136.4,216.59 136.4,189.63 127.75,189.63 127.75,183.59 
			152.75,183.59 		"/>
		<path id="Fill-5" d="M173.38,204.71l-4.59-13.06l-4.64,13.06H173.38z M175.35,210.23h-13.21l-2.25,6.36h-8.15l13.07-33h7.87
			l13.07,33h-8.15L175.35,210.23z"/>
		<path id="Fill-7" d="M198.72,199.15c4.2,0,5.44-1.46,5.44-4.95c0-3.49-1.24-4.95-5.44-4.95h-3.34v9.9H198.72z M212.75,216.59
			h-7.68l-1.48-6.32c-0.95-4.38-1.81-5.56-5.15-5.61h-3.05v11.93h-7.63v-33h13.69c7.11,0,10.35,3.11,10.35,9.9
			c0,4.57-1.81,7.35-5.49,8.49c2.62,1.23,3.91,3.68,4.96,8.3L212.75,216.59z"/>
		<path id="Fill-9" d="M225.18,199.58l11.85-15.98h8.88l-12.46,15.98l13.29,17.02h-8.88L225.18,199.58z M217.75,216.59h7.44v-33
			h-7.44V216.59z"/>
		<polygon id="Fill-11" points="295.75,183.59 285.77,216.59 281.1,216.59 273.22,190.19 265.34,216.59 260.63,216.59 
			250.75,183.59 255.32,183.59 263.1,211.46 271.36,183.59 275.09,183.59 283.34,211.46 291.18,183.59 		"/>
		<path id="Fill-13" d="M315.52,204.86l-6.25-16.55l-6.29,16.55H315.52z M316.7,208.01h-14.91l-3.27,8.58h-4.78l13.2-33h4.59
			l13.2,33h-4.78L316.7,208.01z"/>
		<path id="Fill-15" d="M339.1,199.76c5.25,0,7.21-2.03,7.21-6.46c0-4.34-1.96-6.41-7.21-6.41h-5.96v12.87H339.1z M351.75,216.59
			h-4.44l-1.19-5.66c-1.19-5.89-2.67-7.87-7.16-7.97h-5.82v13.62h-4.39v-33h11.83c7.01,0,10.12,3.06,10.12,9.33
			c0,4.71-1.96,7.59-6.06,8.53c3.24,1.23,4.72,4.01,5.87,9.48L351.75,216.59z"/>
		<g id="Fill-17">
			<path id="path-1_1_" d="M363.11,187.08v10.04h14.7v3.25h-14.7v7.07c0,3.91,1.71,5.66,5.59,5.66h11.05v3.49h-11.71
				c-6.92,0-9.29-2.26-9.29-8.77v-24.23h21v3.49H363.11z"/>
		</g>
		<path id="Fill-20" d="M51.7,203.83l-5.66,5.83c0,0-0.01,0.01-0.01,0.01c-0.01,0.01-0.03,0.01-0.05,0.01
			c-0.05,0-0.09-0.04-0.09-0.09c0-0.01,0-0.02,0-0.03c0,0,0,0,0,0l2.15-8.28c0.18-0.59,0.05-1.27-0.41-1.74l-5.66-5.83
			c0,0-0.01-0.01-0.01-0.01c-0.01-0.01-0.01-0.03-0.01-0.05c0-0.05,0.04-0.09,0.09-0.09c0.01,0,0.02,0,0.03,0c0,0,0,0,0,0l8.03,2.22
			c0.58,0.19,1.23,0.05,1.69-0.42l5.66-5.83c0,0,0.01-0.01,0.01-0.01c0.01-0.01,0.03-0.01,0.05-0.01c0.05,0,0.09,0.04,0.09,0.09
			c0,0.01,0,0.02,0,0.03l0,0l-2.15,8.28c-0.18,0.59-0.05,1.27,0.41,1.74l5.66,5.83c0,0,0.01,0.01,0.01,0.01
			c0.01,0.01,0.01,0.03,0.01,0.05c0,0.05-0.04,0.09-0.09,0.09c-0.01,0-0.02,0-0.03,0c0,0,0,0,0,0l-8.03-2.22
			C52.81,203.22,52.16,203.36,51.7,203.83 M83.5,198.99l-13.51-13.93c-0.46-0.47-1.11-0.61-1.69-0.42l-8.88,2.46c0,0,0,0,0,0
			c-0.01,0-0.02,0-0.03,0c-0.05,0-0.09-0.04-0.09-0.09c0-0.03,0.02-0.06,0.04-0.08c0,0,0,0,0,0c0.97-0.67,2.44-1.87,5.95-5.49
			c0.33-0.34,0.33-0.88,0-1.22l-12.97-13.37c-0.33-0.34-0.85-0.34-1.18,0l-13.51,13.93c-0.46,0.47-0.59,1.15-0.41,1.74l2.38,9.16
			c0,0,0,0,0,0c0,0.01,0,0.02,0,0.03c0,0.05-0.04,0.09-0.09,0.09c-0.03,0-0.06-0.02-0.07-0.04c0,0,0,0,0,0
			c-0.64-1-1.81-2.52-5.33-6.14c-0.33-0.34-0.85-0.34-1.18,0l-12.97,13.37c-0.33,0.34-0.33,0.88,0,1.22l13.51,13.93
			c0.46,0.47,1.11,0.61,1.69,0.42l8.88-2.46c0,0,0,0,0,0c0.01,0,0.02,0,0.03,0c0.05,0,0.09,0.04,0.09,0.09
			c0,0.03-0.02,0.06-0.04,0.08c0,0,0,0,0,0c-0.97,0.66-2.44,1.87-5.95,5.49c-0.33,0.34-0.33,0.88,0,1.22l12.97,13.37
			c0.33,0.34,0.85,0.34,1.18,0l13.51-13.93c0.46-0.47,0.59-1.15,0.41-1.74l-2.38-9.16c0,0,0,0,0,0c0-0.01,0-0.02,0-0.03
			c0-0.05,0.04-0.09,0.09-0.09c0.03,0,0.06,0.02,0.08,0.04v0c0.64,1,1.81,2.52,5.33,6.14c0.33,0.34,0.85,0.34,1.18,0L83.5,200.2
			C83.83,199.87,83.83,199.32,83.5,198.99"/>
	</g>
</g>
</svg>
